docs/.gitbook/assets/icon-forward-16@light.svg

<svg width="32" height="32" viewBox="0 0 16 16" fill="none" xmlns="http://www.w3.org/2000/svg">
<rect x="0" y="0" width="16" height="16" fill="#fff"/>
<path fill-rule="evenodd" clip-rule="evenodd" d="M1.34277 3.12019C1.55649 2.982 1.82569 2.96162 2.05777 3.06606L6 4.84006V3.75C6 3.48313 6.14181 3.23636 6.37239 3.102C6.60297 2.96763 6.88758 2.96591 7.11976 3.09749L14.6198 7.34749C14.8548 7.48065 15 7.72989 15 8C15 8.27011 14.8548 8.51935 14.6198 8.65252L7.11976 12.9025C6.88758 13.0341 6.60297 13.0324 6.37239 12.898C6.14181 12.7636 6 12.5169 6 12.25V11.1599L2.05777 12.9339C1.82569 13.0384 1.55649 13.018 1.34277 12.8798C1.12906 12.7416 1 12.5045 1 12.25V3.75C1 3.49551 1.12906 3.25837 1.34277 3.12019ZM6 9.51506V6.48494L2.5 4.90994V11.0901L6 9.51506ZM7.5 5.03705V6V10V10.963L12.7287 8L7.5 5.03705Z" fill="#000"/>
</svg>

<svg xmlns="http://www.w3.org/2000/svg" width="32" height="32" fill="none" viewBox="0 0 16 16"><path fill="#fff" d="M0 0h16v16H0z"/><path fill="#000" fill-rule="evenodd" d="M1.343 3.12a.75.75 0 0 1 .715-.054L6 4.84V3.75a.75.75 0 0 1 1.12-.653l7.5 4.25a.75.75 0 0 1 0 1.306l-7.5 4.25A.75.75 0 0 1 6 12.25v-1.09l-3.942 1.774A.75.75 0 0 1 1 12.25v-8.5a.75.75 0 0 1 .343-.63M6 9.515v-3.03L2.5 4.91v6.18zm1.5-4.478v5.926L12.729 8z" clip-rule="evenodd"/></svg>
